usr/share/icons/biglinux-icons-material/24/actions/media-album-cover-manager-amarok.svg

<svg xmlns="http://www.w3.org/2000/svg" viewBox="0 0 24 24"><path d="M3 4v16h18V4H3zm1 1h1v14H4V5zm2 0h1a1 1 0 0 0 1 1 1 1 0 0 0 1-1h8a1 1 0 0 0 1 1 1 1 0 0 0 1-1h1v14h-1a1 1 0 0 0-1-1 1 1 0 0 0-1 1H9a1 1 0 0 0-1-1 1 1 0 0 0-1 1H6V5zm0 7a7 7 0 0 0 7 7 7 7 0 0 0 7-7 7 7 0 0 0-7-7 7 7 0 0 0-7 7zm7-6a6 6 0 0 1 6 6 6 6 0 0 1-6 6 6 6 0 0 1-6-6 6 6 0 0 1 6-6zm0 5a1 1 0 0 0-1 1 1 1 0 0 0 1 1 1 1 0 0 0 1-1 1 1 0 0 0-1-1z" style="fill:currentColor;fill-opacity:1;stroke:none;color:#dedede"/></svg>

<svg xmlns="http://www.w3.org/2000/svg" viewBox="0 0 24 24">
  <defs id="defs3051">
    <style type="text/css" id="current-color-scheme">
      .ColorScheme-Text {
        color:#dedede;
      }
      </style>
  </defs>
 <path style="fill:currentColor;fill-opacity:1;stroke:none" 
     d="M 3 4 L 3 20 L 4 20 L 21 20 L 21 4 L 4 4 L 3 4 z M 4 5 L 5 5 L 5 19 L 4 19 L 4 5 z M 6 5 L 7 5 A 1 1 0 0 0 8 6 A 1 1 0 0 0 9 5 L 13 5 L 17 5 A 1 1 0 0 0 18 6 A 1 1 0 0 0 19 5 L 20 5 L 20 12 L 20 19 L 19 19 A 1 1 0 0 0 18 18 A 1 1 0 0 0 17 19 L 13 19 L 9 19 A 1 1 0 0 0 8 18 A 1 1 0 0 0 7 19 L 6 19 L 6 12 L 6 5 z M 6 12 A 7 7 0 0 0 13 19 A 7 7 0 0 0 20 12 A 7 7 0 0 0 13 5 A 7 7 0 0 0 6 12 z M 13 6 A 6 6 0 0 1 19 12 A 6 6 0 0 1 13 18 A 6 6 0 0 1 7 12 A 6 6 0 0 1 13 6 z M 13 11 A 1 1 0 0 0 12 12 A 1 1 0 0 0 13 13 A 1 1 0 0 0 14 12 A 1 1 0 0 0 13 11 z "
     class="ColorScheme-Text"
     />
</svg>
